X: 31017
T: Padded Room, The
R: jig
M: 6/8
K: Eminor
|:A2B cde|dcA AGE|GED EAc|BAG A(3Bcd|
efg abe|bag edB|dBG ABe|dBG EFG|A3 A3:|
|:EAc cAE|AcE EDB,|EFG GFE|FED EDB,|
EAc cAE|AcE Bcd|egb age|dBe A3:|

